public/icons/exclamation-circle-outline-sm.svg

<svg xmlns="http://www.w3.org/2000/svg" width="24" height="24" fill="none" viewBox="0 0 24 24">
  <path fill="currentColor" fill-rule="evenodd" d="M22 12c0 5.5228-4.4772 10-10 10-5.5229 0-10-4.4772-10-10C2 6.4771 6.4771 2 12 2c5.5228 0 10 4.4771 10 10Zm1 0c0 6.0751-4.9249 11-11 11S1 18.0751 1 12 5.9249 1 12 1s11 4.9249 11 11Zm-10.85 3.4499c-.75 0-1.35.4501-1.35 1.2001s.45 1.1999 1.35 1.1999c.6 0 1.2001-.4499 1.2001-1.1999s-.6001-1.2001-1.2001-1.2001ZM11.1001 6l.4499 7.65h.9L12.9 6h-1.7999Z" clip-rule="evenodd"/>
</svg>

<svg role="img" width="24" height="24" viewBox="0 0 24 24" fill="none" xmlns="http://www.w3.org/2000/svg">
<path fill-rule="evenodd" clip-rule="evenodd" d="M22 12C22 17.5228 17.5228 22 12 22C6.47715 22 2 17.5228 2 12C2 6.47715 6.47715 2 12 2C17.5228 2 22 6.47715 22 12ZM23 12C23 18.0751 18.0751 23 12 23C5.92487 23 1 18.0751 1 12C1 5.92487 5.92487 1 12 1C18.0751 1 23 5.92487 23 12ZM12.15 15.4499C11.4 15.4499 10.8 15.9 10.8 16.65C10.8 17.4 11.25 17.8499 12.15 17.8499C12.75 17.8499 13.3501 17.4 13.3501 16.65C13.3501 15.9 12.75 15.4499 12.15 15.4499ZM11.1001 6L11.55 13.65H12.45L12.9 6H11.1001Z" fill="currentColor"/>
</svg>
